!!!OTL: Sanpen Shuixian
!!!ARE: Asia, China,ÿTaiwan
!! IV, 646
!!!SCT: C1712
!!!YEM: Copyright 1995, estate of Helmut Schaffrath.
**kern
*ICvox
*Ivox
*M2/4
*k[f#]
*G:
{8b
8dd
8b
8a
=1
8b
8dd
8b
8a
=2
8b
8e
8g
8a
=3
2b}
=4
{4dd
4b
=5
8b
4dd
8ee
=6
8b
8a
8e
8b
=7
2a}
=8
{4a
4dd
=9
8b
4dd
8a
=10
8b
8dd
4a
=11
2e}
=12
{8dd
8b
8b
8dd
=13
8a
4b
8b
=14
8a
8g
8e
8g
=15
8.a
16b
8a
8g}
=16
{8.e
16g
8e
8d
=17
8b
8dd
8b
8a
=18
8g
8a
8b
8a
=19
2g}
==
!!!AGN: Xiaodiao
!!!AMT: simple duple
!!!AIN: vox
!!!EED: Helmut Schaffrath
!!!EEV: 1.0
*-
